X:1
T:Praise Our Savior!
T:Henry Tucker, 1867
T:Praise Our Savior!
T:Public Domain
T:Public Domain
C:Henry Tucker, 1867
Z:Public Domain
%%score 1 ( 2 3 )
L:1/8
M:4/4
K:C
V:1 treble 
V:2 bass 
V:3 bass 
V:1
 [EG]2 [EG]2 ([FA][EG])([^D^F][EG]) | [Ec]2 [EG]2 ([FA][EG])([^D^F][EG]) | %2
w: 1.~Praise our Sav- * ior, *|in our mea- * sure, *|
w: 2.~Send His sto- * ry, *|spread His glo- * ry, *|
w: 3.~Wor- ship, hon- * or, *|strength and bless- * ing, *|
 [EG]2 [DF]2 [DF]2 [CE]2 | [CE]2 [B,D]2 [B,D]4 | [CE]2 [EG]2 ([FA][EG])([^D^F][EG]) | %5
w: Sound a- loud His|won- drous name;|Glad- ly sing- * ing, *|
w: To the earth’s re-|mot- est bound;|Tell the tid- * ings— *|
w: Be to Him for-|ev- er paid;|Love in- creas- * ing, *|
 [Ec]2 [EG]2 ([FA][EG])([^D^F][EG]) | [Ec]3 [Gc] [Ad]2 [Ad]2 | [Gc]2 [FB]2 [Ec]4 |: %8
w: prais- es bring- * ing, *|Heart and voice His|love pro- claim.|
w: gra- cious tid- * ings— *|Where a sin- ful|soul is found.|
w: thanks un- ceas- * ing, *|For the life His|death hath made.|
"^Refrain" [EG]4 [Ec]4 | [Gd]4 [Ge]4 | [Fd]3 [Ec] [FB]2 [FA]2 | [EG]2 [DF]2 [CE]2 [EG]2 :| %12
w: Praise Him!|Praise Him!|Praise, oh, praise Him|in our sing- ing.|
w: Sav- ior!|Sav- ior!|Hear, oh, hear our|prais- es ring- ing!|
w: ||||
"^Very soft" [EG]2 z2 [FG]2 z [FG] | [DG]2 [FG]2 ([EG]2 [Gc]2) |"^Loud" [Gd]4 [Ge]4 | [Fd]4 [Ec]4 | %16
w: ||||
w: Shout, shout, in|notes more loud, *|Praise Him!|Praise Him!|
w: ||||
"^Very soft" [EG]2 z2 [FG]2 z [FG] | [DG]2 [FG]2 ([EG]2 [Gc]2) |"^Loud" [Gd]4 [Ge]4 | %19
w: |||
w: Shout, shout, in|notes more loud, *|Praise Him!|
w: |||
 [Fd]4 [Ec]4 |] %20
w: |
w: Praise Him!|
w: |
V:2
 [C,C]2 [C,C]2 [C,C]2 [C,C]2 | [C,G,]2 [C,C]2 [C,C]2 [C,C]2 | [C,C]2 [B,,G,]2 [B,,G,]2 [C,G,]2 | %3
 [G,,G,]2 [G,,G,]2 [G,,G,]4 | [C,G,]2 [C,C]2 [C,C]2 [C,C]2 | [C,G,]2 [C,C]2 [C,C]2 [C,C]2 | %6
 [C,G,]3 [E,C] [F,C]2 [F,F]2 | [G,E]2 [G,D]2 [C,C]4 |: [C,C]4 [C,G,]4 | [G,B,]4 C4 | %10
 [G,B,]3 [G,C] [G,D]2 [G,B,]2 | [C,C]2 [C,G,]2 [C,G,]2 [C,G,]2 :| [C,C]2 z2 [G,B,]2 z [G,B,] | %13
 [G,B,]2 [G,D]2 (C,2 E,2) | [G,B,]4 C4 | [G,B,]4 [C,C]4 | [C,C]2 z2 [G,B,]2 z [G,B,] | %17
 [G,B,]2 [G,D]2 (C,2 E,2) | [G,B,]4 C4 | [G,B,]4 [C,C]4 |] %20
V:3
 x8 | x8 | x8 | x8 | x8 | x8 | x8 | x8 |: x8 | x4 C4 | x8 | x8 :| x8 | x4 C4 | x4 C4 | x8 | x8 | %17
 x4 C4 | x4 C4 | x8 |] %20

